img/basket.svg

<svg fill="none" height="24" viewBox="0 0 24 24" width="24" xmlns="http://www.w3.org/2000/svg"><path d="m21.5 9.59385v.56255c0 .4659-.3358.8437-.75.8437h-.25l-.816 6.4261c-.1056.8314-.7385 1.4489-1.4849 1.4489h-11.39816c-.74647 0-1.37935-.6175-1.48494-1.4489l-.816-6.4261h-.25c-.41422 0-.75-.3778-.75-.8437v-.56255c0-.466.33578-.84375.75-.84375h2.10441l3.33687-5.16168c.32482-.50245.95022-.61358 1.39692-.24813.4466.36545.5454 1.06903.2206 1.57152l-2.48139 3.83829h7.34519l-2.4814-3.83832c-.3248-.50246-.226-1.20607.2206-1.57152s1.0721-.25436 1.397.24813l3.3368 5.16171h2.1044c.4142 0 .75.37775.75.84375zm-8.25 6.18755v-3.9375c0-.466-.3358-.8438-.75-.8438s-.75.3778-.75.8438v3.9375c0 .4659.3358.8437.75.8437s.75-.3778.75-.8437zm3.5 0v-3.9375c0-.466-.3358-.8438-.75-.8438s-.75.3778-.75.8438v3.9375c0 .4659.3358.8437.75.8437s.75-.3778.75-.8437zm-7 0v-3.9375c0-.466-.33578-.8438-.75-.8438s-.75.3778-.75.8438v3.9375c0 .4659.33578.8437.75.8437s.75-.3778.75-.8437z" fill="#1c8aa9"/></svg>

<svg width="24" height="24" viewBox="0 0 24 24" fill="none" xmlns="http://www.w3.org/2000/svg">
<path d="M21.5 9.59385V10.1564C21.5 10.6223 21.1642 11.0001 20.75 11.0001H20.5L19.684 17.4262C19.5784 18.2576 18.9455 18.8751 18.1991 18.8751H6.80094C6.05447 18.8751 5.42159 18.2576 5.316 17.4262L4.5 11.0001H4.25C3.83578 11.0001 3.5 10.6223 3.5 10.1564V9.59385C3.5 9.12785 3.83578 8.7501 4.25 8.7501H6.35441L9.69128 3.58842C10.0161 3.08597 10.6415 2.97484 11.0882 3.34029C11.5348 3.70574 11.6336 4.40932 11.3088 4.91181L8.82741 8.7501H16.1726L13.6912 4.91178C13.3664 4.40932 13.4652 3.70571 13.9118 3.34026C14.3584 2.97481 14.9839 3.0859 15.3088 3.58839L18.6456 8.7501H20.75C21.1642 8.7501 21.5 9.12785 21.5 9.59385ZM13.25 15.7814V11.8439C13.25 11.3779 12.9142 11.0001 12.5 11.0001C12.0858 11.0001 11.75 11.3779 11.75 11.8439V15.7814C11.75 16.2473 12.0858 16.6251 12.5 16.6251C12.9142 16.6251 13.25 16.2473 13.25 15.7814ZM16.75 15.7814V11.8439C16.75 11.3779 16.4142 11.0001 16 11.0001C15.5858 11.0001 15.25 11.3779 15.25 11.8439V15.7814C15.25 16.2473 15.5858 16.6251 16 16.6251C16.4142 16.6251 16.75 16.2473 16.75 15.7814ZM9.75 15.7814V11.8439C9.75 11.3779 9.41422 11.0001 9 11.0001C8.58578 11.0001 8.25 11.3779 8.25 11.8439V15.7814C8.25 16.2473 8.58578 16.6251 9 16.6251C9.41422 16.6251 9.75 16.2473 9.75 15.7814Z" fill="#1C8AA9"/>
</svg>
